X:1
T:Boci, boci, tarka
O:Magyar népdal
M:2/4
L:1/8
K:C
CECE | G2G2 | CECE | G2G2 | cBAG | F2A2 | GFED | C2C2 |]
w:Bo-ci, bo-ci, tar-ka, se fü-le se far-ka. O-da me-gyünk lak-ni, a-hol te-jet kap-ni.


